X: 25322
T: Mangerton Suite
R: waltz
M: 3/4
K: Gminor
|:d2 f3g|c4 cB|d4 dc|cB G2 Bc|d2 f3g|c4 cd|c2 B2 B2|B4 d/c/B|
d2 f3g|c4 cB|d4 dc|cB G2 Bc|d2 f3g|c4 cd|c2 B2 B2|1 B4 d/c/B:|2 B4 df||
|:g(f f3)g|d4 cB|c4 cd|cB G4|g(f f3)g|d4 cB|c4 cd|fz b2 a2|
g(f f3)g|d4 cB|c4 cd|cB G2 Bc|d2 f3g|c4 cd|c2 B2 B2|1 B4 df:|2 B4 Bc||

